X: 4
T: The Hunter's House
R: reel
M: 4/4
L: 1/8
K: Gmaj
|: BddB cAFA | G2BG DGBG | BddB cAFA |
GBAG FDCE |DG~G2 AG~G2 | BGAF GABc |
defg agfd |1 cAFA G2GA :|2 cAFA G3A ||
|: B2gB aBgB | B2gf edcB | ca~a2 bgaf | dfaf gfed |
B2gB aBgB | B2gf edcB | cBAg fgaf | gdBd cAFA :|


Tune 472	Setting 472

